_site/images/features/icons/circle-user.svg

<svg height="42" viewBox="0 0 42 42" width="42" xmlns="http://www.w3.org/2000/svg"><g fill="#0b7a76" fill-rule="evenodd"><circle cx="21" cy="21" fill-opacity=".3" r="21"/><path d="m11.55 9.22c1.0796492-.93454856 1.7000156-2.29205623 1.7-3.72 0-2.76142375-2.2385763-5-5-5-2.76142375 0-5 2.23857625-5 5 .01249288 1.43596981.65173276 2.79481114 1.75 3.72-2.85905904 1.2946379-4.6969939 4.1414817-4.7 7.28 0 .5522847.44771525 1 1 1s1-.4477153 1-1c0-3.3137085 2.6862915-6 6-6s6 2.6862915 6 6c0 .5522847.4477153 1 1 1s1-.4477153 1-1c-.0118611-3.1502367-1.8714032-6.0002296-4.75-7.28zm-3.3-.72c-1.65685425 0-3-1.34314575-3-3s1.34314575-3 3-3 3 1.34314575 3 3c0 .79564947-.3160705 1.55871121-.8786797 2.12132034-.56260909.56260914-1.32567083.87867966-2.1213203.87867966zm8.5-5c-.5522847 0-1 .44771525-1 1v2c0 .55228475.4477153 1 1 1s1-.44771525 1-1v-2c0-.55228475-.4477153-1-1-1zm-.75 5.29c-.1827337.19163379-.2863165.44523302-.29.71-.0015368.26580298.1028135.5212812.29.71.0972009.0883309.2088151.1593581.33.21.2420399.1069768.5179601.1069768.76 0 .2512303-.0909238.4490762-.2887697.54-.54.0559814-.11867938.0833801-.24882347.08-.38.0023626-.40626507-.2413038-.77358004-.6165185-.92937095s-.807391-.069089-1.0934815.21937095z" fill-rule="nonzero" transform="translate(12 12)"/></g></svg>

<?xml version="1.0" encoding="UTF-8"?>
<svg width="42px" height="42px" viewBox="0 0 42 42" version="1.1" xmlns="http://www.w3.org/2000/svg" xmlns:xlink="http://www.w3.org/1999/xlink">
    <!-- Generator: Sketch 52.6 (67491) - http://www.bohemiancoding.com/sketch -->
    <title>Group 6</title>
    <desc>Created with Sketch.</desc>
    <g id="Landing-page" stroke="none" stroke-width="1" fill="none" fill-rule="evenodd">
        <g id="1.3--Features" transform="translate(-833.000000, -1737.000000)" fill="#0B7A76">
            <g id="solutions" transform="translate(0.000000, 468.000000)">
                <g id="Group-9" transform="translate(833.000000, 955.000000)">
                    <g id="Group-6" transform="translate(0.000000, 314.000000)">
                        <circle id="Oval" fill-opacity="0.3" cx="21" cy="21" r="21"></circle>
                        <g id="user-exclamation" transform="translate(12.000000, 12.000000)" fill-rule="nonzero">
                            <path d="M11.55,9.22 C12.6296492,8.28545144 13.2500156,6.92794377 13.25,5.5 C13.25,2.73857625 11.0114237,0.5 8.25,0.5 C5.48857625,0.5 3.25,2.73857625 3.25,5.5 C3.26249288,6.93596981 3.90173276,8.29481114 5,9.22 C2.14094096,10.5146379 0.3030061,13.3614817 0.3,16.5 C0.3,17.0522847 0.74771525,17.5 1.3,17.5 C1.85228475,17.5 2.3,17.0522847 2.3,16.5 C2.3,13.1862915 4.9862915,10.5 8.3,10.5 C11.6137085,10.5 14.3,13.1862915 14.3,16.5 C14.3,17.0522847 14.7477153,17.5 15.3,17.5 C15.8522847,17.5 16.3,17.0522847 16.3,16.5 C16.2881389,13.3497633 14.4285968,10.4997704 11.55,9.22 Z M8.25,8.5 C6.59314575,8.5 5.25,7.15685425 5.25,5.5 C5.25,3.84314575 6.59314575,2.5 8.25,2.5 C9.90685425,2.5 11.25,3.84314575 11.25,5.5 C11.25,6.29564947 10.9339295,7.05871121 10.3713203,7.62132034 C9.80871121,8.18392948 9.04564947,8.5 8.25,8.5 Z M16.75,3.5 C16.1977153,3.5 15.75,3.94771525 15.75,4.5 L15.75,6.5 C15.75,7.05228475 16.1977153,7.5 16.75,7.5 C17.3022847,7.5 17.75,7.05228475 17.75,6.5 L17.75,4.5 C17.75,3.94771525 17.3022847,3.5 16.75,3.5 Z M16,8.79 C15.8172663,8.98163379 15.7136835,9.23523302 15.71,9.5 C15.7084632,9.76580298 15.8128135,10.0212812 16,10.21 C16.0972009,10.2983309 16.2088151,10.3693581 16.33,10.42 C16.5720399,10.5269768 16.8479601,10.5269768 17.09,10.42 C17.3412303,10.3290762 17.5390762,10.1312303 17.63,9.88 C17.6859814,9.76132062 17.7133801,9.63117653 17.71,9.5 C17.7123626,9.09373493 17.4686962,8.72641996 17.0934815,8.57062905 C16.7182668,8.41483814 16.2860905,8.50154005 16,8.79 Z" id="Shape"></path>
                        </g>
                    </g>
                </g>
            </g>
        </g>
    </g>
</svg>
